X: 749
T: Qingzhu bianqu lincanhui
%%abc-version 2.0
%%abcx-abcm2ps-target-version 5.9.1 (29 Sep 2008)
%%abc-creator hum2abc beta
%%abcx-conversion-date 2013/10/02 07:52:30
%%abc-edited-by Helmut Schaffrath
%%humdrum-veritas 3486765365
%%humdrum-veritas-data 93225174
%%continueall 1
%%barnumbers 0
L: 1/8
M: 2/4
K: G
d d e d [I:setbarnb 1]| 
d Ad2 | 
A G A B | 
F ED2 | 
G F E G | 
A BA2 | 
d2A d | 
G F A E | 
D4 |]  



